icons/folder-database.svg

<svg xmlns="http://www.w3.org/2000/svg" viewBox="0 0 16 16"><path fill="#ffca28" d="m6.922 3.768-.644-.536A1 1 0 0 0 5.638 3H2a1 1 0 0 0-1 1v8a1 1 0 0 0 1 1h12a1 1 0 0 0 1-1V5a1 1 0 0 0-1-1H7.562a1 1 0 0 1-.64-.232"/><path fill="#ffecb3" d="M12 5a4 2 0 0 0-4 2 4 2 0 0 0 4 2 4 2 0 0 0 4-2 4 2 0 0 0-4-2M8 8v2c0 1.105 1.791 2 4 2s4-.895 4-2V8c0 1.105-1.791 2-4 2s-4-.895-4-2m0 3v2c0 1.105 1.791 2 4 2s4-.895 4-2v-2c0 1.105-1.791 2-4 2s-4-.895-4-2"/></svg>

<svg xmlns="http://www.w3.org/2000/svg" viewBox="0 0 16 16">
	<path fill="#FFCA28" d="M 6.922,3.768 6.278,3.232 A 1,1 0 0 0 5.638,3 H 2 A 1,1 0 0 0 1,4 v 8 a 1,1 0 0 0 1,1 h 12 a 1,1 0 0 0 1,-1 V 5 A 1,1 0 0 0 14,4 H 7.562 A 1,1 0 0 1 6.922,3.768" />
	<path fill="#FFECB3" d="M 12,5 A 4,2 0 0 0 8,7 4,2 0 0 0 12,9 4,2 0 0 0 16,7 4,2 0 0 0 12,5 Z M 8,8 v 2 c 0,1.105 1.791,2 4,2 2.209,0 4,-0.895 4,-2 V 8 c 0,1.105 -1.791,2 -4,2 C 9.791,10 8,9.105 8,8 Z m 0,3 v 2 c 0,1.105 1.791,2 4,2 2.209,0 4,-0.895 4,-2 v -2 c 0,1.105 -1.791,2 -4,2 -2.209,0 -4,-0.895 -4,-2 z" />
</svg>
